X: 16288
T: Griffenfeld
R: reel
M: 4/4
K: Amixolydian
|:ABcd e2 ge|feec ~A3c|B2 G2 G2 Bd|c2 A2 A2 E2|
ABcd eege|feec ~A3c|B2 G2 G2 Bd|1 c2 A2 A2 E2:|2 c2A2 ageg||
|:a4 a2 ba|ga fg e3 f|edcB cdea|^g2 e2 effe|
a4 a2 ba|ga fg e3 f|edcB cABG|GAA2 AGE2:|

